src/img/projects/shopify.svg

<?xml version="1.0" encoding="UTF-8"?>
<svg width="90px" height="90px" viewBox="0 0 90 90" version="1.1" xmlns="http://www.w3.org/2000/svg" xmlns:xlink="http://www.w3.org/1999/xlink">
    <!-- Generator: Sketch 41.2 (35397) - http://www.bohemiancoding.com/sketch -->
    <title>community/card/logo/shopify</title>
    <desc>Created with Sketch.</desc>
    <defs></defs>
    <g id="Symbols" stroke="none" stroke-width="1" fill="none" fill-rule="evenodd">
        <g id="community/card/logo/shopify" fill="#FFFFFF">
            <path d="M60.7170652,28.0516982 C60.6778506,27.7662518 60.4279711,27.6084812 60.2214101,27.5911538 C60.015305,27.5738263 55.6524447,27.2505333 55.6524447,27.2505333 C55.6524447,27.2505333 52.6224271,24.242403 52.2900143,23.9095343 C51.9571456,23.5766655 51.3073675,23.6778941 51.0552081,23.7522196 C51.0178173,23.7631632 50.3931186,23.9560447 49.3594014,24.2756899 C48.3471157,21.3633164 46.5610241,18.6866869 43.4183784,18.6866869 C43.3317414,18.6866869 43.2423683,18.6903348 43.1529953,18.6953507 C42.2592657,17.5134386 41.152135,17 40.1959353,17 C32.875559,17 29.3781573,26.1511545 28.2815144,30.8017412 C25.4370826,31.6831594 23.416159,32.3096822 23.1580717,32.3908474 C21.5703334,32.8887826 21.5201751,32.9389409 21.3117901,34.4350263 C21.1544755,35.567692 17,67.6963652 17,67.6963652 L49.372625,73.761872 L66.9134397,69.9671684 C66.9134397,69.9671684 60.755824,28.3371445 60.7170652,28.0516982 L60.7170652,28.0516982 Z M47.570118,24.8292552 C46.7570975,25.0809587 45.8328168,25.366861 44.8310186,25.6769305 C44.8319307,25.484049 44.8328426,25.2939035 44.8328426,25.0864305 C44.8328426,23.2761717 44.5815951,21.818845 44.1785048,20.6633801 C45.7977059,20.8667492 46.8761095,22.7089269 47.570118,24.8292552 L47.570118,24.8292552 Z M42.1698927,21.0222399 C42.6199494,22.1503458 42.9126916,23.769091 42.9126916,25.9537131 C42.9126916,26.0654294 42.9117795,26.1675699 42.9108676,26.2710784 C41.1293359,26.8228197 39.1936813,27.4219835 37.2534669,28.0229711 C38.342814,23.8187934 40.384713,21.788294 42.1698927,21.0222399 L42.1698927,21.0222399 Z M39.9948462,18.9634696 C40.3108435,18.9634696 40.6291207,19.070626 40.9337184,19.2803789 C38.5876777,20.3843175 36.0729229,23.1649115 35.0109348,28.7174357 C33.4587633,29.1980434 31.9417026,29.6677075 30.539094,30.1022608 C31.78302,25.8670761 34.7368881,18.9634696 39.9948462,18.9634696 Z M43.4183784,37.2831059 L41.2556436,43.7165923 C41.2556436,43.7165923 39.3605718,42.7052186 37.0377862,42.7052186 C33.6324934,42.7052186 33.4610432,44.8424182 33.4610432,45.380936 C33.4610432,48.3193006 41.1206721,49.4451266 41.1206721,56.3277577 C41.1206721,61.7425745 37.6861964,65.2294886 33.0552169,65.2294886 C27.4981329,65.2294886 24.656437,61.7708457 24.656437,61.7708457 L26.1443147,56.8548759 C26.1443147,56.8548759 29.0653519,59.3627911 31.5304045,59.3627911 C33.140942,59.3627911 33.7961919,58.094698 33.7961919,57.1681373 C33.7961919,53.3351309 27.5122684,53.1641367 27.5122684,46.8660778 C27.5122684,41.5652571 31.3170037,36.4354306 38.9971519,36.4354306 C41.9564919,36.4354306 43.4183784,37.2831059 43.4183784,37.2831059 Z" id="Combined-Shape"></path>
        </g>
    </g>
</svg>

<svg width="90" height="90" viewBox="0 0 90 90" xmlns="http://www.w3.org/2000/svg"><title>community/card/logo/shopify</title><path d="M60.717 28.052a.548.548 0 0 0-.496-.46c-.206-.018-4.569-.341-4.569-.341s-3.03-3.009-3.362-3.341c-.333-.333-.983-.232-1.235-.158l-1.696.524c-1.012-2.913-2.798-5.59-5.94-5.59-.087 0-.177.004-.266.01-.894-1.183-2-1.696-2.957-1.696-7.32 0-10.818 9.151-11.914 13.802-2.845.881-4.866 1.508-5.124 1.589-1.588.498-1.638.548-1.846 2.044C21.154 35.568 17 67.696 17 67.696l32.373 6.066 17.54-3.795s-6.157-41.63-6.196-41.915zM47.57 24.829l-2.739.848.002-.59c0-1.81-.251-3.268-.654-4.424 1.619.204 2.697 2.046 3.391 4.166zm-5.4-3.807c.45 1.128.743 2.747.743 4.932l-.002.317-5.658 1.752c1.09-4.204 3.132-6.235 4.917-7zm-2.175-2.059c.316 0 .634.108.939.317-2.346 1.104-4.861 3.885-5.923 9.437l-4.472 1.385c1.244-4.235 4.198-11.139 9.456-11.139zm3.423 18.32l-2.162 6.434s-1.895-1.012-4.218-1.012c-3.406 0-3.577 2.137-3.577 2.676 0 2.938 7.66 4.064 7.66 10.947 0 5.415-3.435 8.901-8.066 8.901-5.557 0-8.399-3.458-8.399-3.458l1.488-4.916s2.921 2.508 5.386 2.508c1.61 0 2.266-1.268 2.266-2.195 0-3.833-6.284-4.004-6.284-10.302 0-5.3 3.805-10.43 11.485-10.43 2.96 0 4.421.847 4.421.847z" fill="#FFF" fill-rule="evenodd"/></svg>
